X:173
T:Something New. JJo8.173
B:J.Johnson Choice Collection Vol 8 1758
Z:vmp.Simon Wilson 2013 www.village-music-project.org.uk
M:9/8
L:1/8
Q:3/8=130
K:Bb
|:B3BFEF3|B3BFD EFG|B3BFD E2E|DEF GAB ABc:|
|:B3fdfF3|B3fdf gab|B3fdfF3|DEF GAB ABc:|
